src/images/svg/symbols/iota_flag.svg

<svg width="32" height="32" fill="none" xmlns="http://www.w3.org/2000/svg"><path d="M0 16C0 7.163 7.163 0 16 0s16 7.163 16 16-7.163 16-16 16S0 24.837 0 16Z" fill="#131F37"/><path d="M20.15 10.014a.92.92 0 1 1-1.026-1.527.92.92 0 0 1 1.026 1.527Zm1.037 12.989a.92.92 0 1 1-1.026-1.528.92.92 0 0 1 1.026 1.528Zm-1.285-10.534a.771.771 0 1 0-.003-1.542.771.771 0 0 0 .003 1.542Zm2.487.165a.772.772 0 1 1-.86-1.283.772.772 0 0 1 .86 1.283Zm-2.749 1.79a.657.657 0 1 0-.002-1.315.657.657 0 0 0 .002 1.315Zm2.422.166a.657.657 0 1 1-.733-1.09.657.657 0 0 1 .733 1.09Zm1.282.753a.657.657 0 1 0-.002-1.313.657.657 0 0 0 .002 1.313Zm-1.936.839a.575.575 0 1 1-.64-.956.575.575 0 0 1 .64.956ZM19.03 16a.575.575 0 1 0 0-1.15.575.575 0 0 0 0 1.15Zm4.04.822a.575.575 0 1 1-.64-.955.575.575 0 0 1 .64.955Zm-2.804.656a.493.493 0 1 0-.003-.987.493.493 0 0 0 .003.987Zm1.934.541a.493.493 0 1 1-.549-.818.493.493 0 0 1 .55.818Zm-3.976-.837a.493.493 0 1 0-.002-.986.493.493 0 0 0 .002.986Zm1.366 1.031a.41.41 0 1 1-.458-.682.41.41 0 0 1 .458.682Zm.477 1.201a.36.36 0 1 0-.002-.722.36.36 0 0 0 .002.722Zm-.709.181a.295.295 0 1 1-.329-.49.295.295 0 0 1 .33.49Zm-.936-.804a.361.361 0 1 0-.002-.722.361.361 0 0 0 .002.722Zm-.892-.858a.411.411 0 1 1-.458-.682.411.411 0 0 1 .458.682Zm-.245-3.017a.41.41 0 1 0-.002-.82.41.41 0 0 0 .002.82Zm.382-1.506a.362.362 0 1 1-.403-.602.362.362 0 0 1 .403.602Zm.194-1.121a.295.295 0 1 0-.002-.591.295.295 0 0 0 .002.59Zm-.491-.618a.362.362 0 1 1-.403-.6.362.362 0 0 1 .403.6Zm3.636 7.235a.41.41 0 1 0-.002-.822.41.41 0 0 0 .002.822Zm-4.546-7.723a.41.41 0 1 1-.459-.682.41.41 0 0 1 .46.682Zm.052 1.812a.41.41 0 1 0-.002-.82.41.41 0 0 0 .002.82Zm-.187 1.575a.493.493 0 1 1-.55-.818.493.493 0 0 1 .55.818Zm-1.773.083a.576.576 0 1 0-.007-1.152.576.576 0 0 0 .007 1.152Zm-1.38.283a.657.657 0 1 1-.733-1.091.657.657 0 0 1 .733 1.091Zm-2.275 1.047a.772.772 0 1 0-.003-1.543.772.772 0 0 0 .003 1.543Zm-1.465 1.42a.92.92 0 1 1-1.025-1.527.92.92 0 0 1 1.025 1.527Zm.692-3.341a.772.772 0 1 0-.004-1.544.772.772 0 0 0 .004 1.544Zm2.274-1.047a.657.657 0 1 1-.732-1.092.657.657 0 0 1 .732 1.092Zm-.644-1.629a.657.657 0 1 0-.006-1.315.657.657 0 0 0 .006 1.315Zm2.063-.492a.575.575 0 1 1-.64-.955.575.575 0 0 1 .64.955Zm1.179.098a.493.493 0 1 0-.002-.987.493.493 0 0 0 .002.987Zm.554 1.656a.493.493 0 1 1-.55-.818.493.493 0 0 1 .55.818Zm-1.77.1a.576.576 0 1 0-.004-1.15.576.576 0 0 0 .004 1.15Zm-1.467 4.318a.296.296 0 1 1-.33-.49.296.296 0 0 1 .33.49Zm1.021-.098a.36.36 0 1 0-.003-.721.36.36 0 0 0 .003.721Zm1.529-.562a.41.41 0 1 1-.457-.681.41.41 0 0 1 .457.681Zm.085 1.384a.493.493 0 1 0-.001-.986.493.493 0 0 0 0 .986Zm-1.353.242a.41.41 0 1 1-.457-.683.41.41 0 0 1 .457.683Zm-1.628.053a.361.361 0 1 0-.002-.723.361.361 0 0 0 .002.723Zm.246 1.064a.411.411 0 1 1-.459-.683.411.411 0 0 1 .459.683Zm1.45.283a.493.493 0 1 0-.002-.986.493.493 0 0 0 .002.986Zm2.278-.311a.575.575 0 1 1-.64-.956.575.575 0 0 1 .64.956Zm.835 1.526a.657.657 0 1 0-.003-1.315.657.657 0 0 0 .003 1.315Zm-2.103.1a.575.575 0 1 1-.64-.956.575.575 0 0 1 .64.956Zm-1.685 1.213a.576.576 0 1 0-.004-1.152.576.576 0 0 0 .004 1.152Zm1.501 1.334a.657.657 0 1 1-.731-1.09.657.657 0 0 1 .731 1.09Zm2.665.375a.771.771 0 1 0-.004-1.543.771.771 0 0 0 .004 1.543Zm-1.299-1.492a.657.657 0 1 1-.732-1.09.657.657 0 0 1 .732 1.09Zm2.567-.15a.772.772 0 1 0-.004-1.543.772.772 0 0 0 .004 1.543Zm-5.851-1.562a.493.493 0 1 1-.55-.819.493.493 0 0 1 .55.819Z" fill="#fff"/></svg>

<svg width="32" height="32" fill="none" xmlns="http://www.w3.org/2000/svg"><path d="M0 16C0 7.163 7.163 0 16 0s16 7.163 16 16-7.163 16-16 16S0 24.837 0 16Z" fill="#131F37"/><path d="M20.15 10.014a.92.92 0 1 1-1.026-1.527.92.92 0 0 1 1.026 1.527ZM21.187 23.003a.92.92 0 1 1-1.026-1.528.92.92 0 0 1 1.026 1.528ZM19.902 12.469a.771.771 0 1 0-.003-1.542.771.771 0 0 0 .003 1.542ZM22.389 12.634a.772.772 0 1 1-.86-1.283.772.772 0 0 1 .86 1.283ZM19.64 14.424a.657.657 0 1 0-.002-1.315.657.657 0 0 0 .002 1.315ZM22.062 14.59a.657.657 0 1 1-.733-1.09.657.657 0 0 1 .733 1.09ZM23.344 15.343a.657.657 0 1 0-.002-1.313.657.657 0 0 0 .002 1.313ZM21.408 16.182a.575.575 0 1 1-.64-.956.575.575 0 0 1 .64.956ZM19.03 16a.575.575 0 1 0 0-1.15.575.575 0 0 0 0 1.15ZM23.07 16.822a.575.575 0 1 1-.64-.955.575.575 0 0 1 .64.955ZM20.266 17.478a.493.493 0 1 0-.003-.987.493.493 0 0 0 .003.987ZM22.2 18.019a.493.493 0 1 1-.549-.818.493.493 0 0 1 .55.818ZM18.224 17.182a.493.493 0 1 0-.002-.986.493.493 0 0 0 .002.986ZM19.59 18.213a.41.41 0 1 1-.458-.682.41.41 0 0 1 .458.682ZM20.067 19.414a.36.36 0 1 0-.002-.722.36.36 0 0 0 .002.722ZM19.358 19.595a.295.295 0 1 1-.329-.49.295.295 0 0 1 .33.49ZM18.422 18.791a.361.361 0 1 0-.002-.722.361.361 0 0 0 .002.722ZM17.53 17.933a.411.411 0 1 1-.458-.682.411.411 0 0 1 .458.682ZM17.285 14.916a.41.41 0 1 0-.002-.82.41.41 0 0 0 .002.82ZM17.667 13.41a.362.362 0 1 1-.403-.602.362.362 0 0 1 .403.602ZM17.861 12.289a.295.295 0 1 0-.002-.591.295.295 0 0 0 .002.59ZM17.37 11.671a.362.362 0 1 1-.403-.6.362.362 0 0 1 .403.6ZM21.006 18.906a.41.41 0 1 0-.002-.822.41.41 0 0 0 .002.822ZM16.46 11.183a.41.41 0 1 1-.459-.682.41.41 0 0 1 .46.682ZM16.512 12.995a.41.41 0 1 0-.002-.82.41.41 0 0 0 .002.82ZM16.325 14.57a.493.493 0 1 1-.55-.818.493.493 0 0 1 .55.818ZM14.552 14.653a.576.576 0 1 0-.007-1.152.576.576 0 0 0 .007 1.152ZM13.172 14.936a.657.657 0 1 1-.733-1.091.657.657 0 0 1 .733 1.091ZM10.897 15.983a.772.772 0 1 0-.003-1.543.772.772 0 0 0 .003 1.543ZM9.432 17.403a.92.92 0 1 1-1.025-1.527.92.92 0 0 1 1.025 1.527ZM10.124 14.062a.772.772 0 1 0-.004-1.544.772.772 0 0 0 .004 1.544ZM12.398 13.015a.657.657 0 1 1-.732-1.092.657.657 0 0 1 .732 1.092ZM11.754 11.386a.657.657 0 1 0-.006-1.315.657.657 0 0 0 .006 1.315ZM13.817 10.894a.575.575 0 1 1-.64-.955.575.575 0 0 1 .64.955ZM14.996 10.992a.493.493 0 1 0-.002-.987.493.493 0 0 0 .002.987ZM15.55 12.648a.493.493 0 1 1-.55-.818.493.493 0 0 1 .55.818ZM13.78 12.748a.576.576 0 1 0-.004-1.15.576.576 0 0 0 .004 1.15ZM12.313 17.066a.296.296 0 1 1-.33-.49.296.296 0 0 1 .33.49ZM13.334 16.968a.36.36 0 1 0-.003-.721.36.36 0 0 0 .003.721ZM14.863 16.406a.41.41 0 1 1-.457-.681.41.41 0 0 1 .457.681ZM14.948 17.79a.493.493 0 1 0-.001-.986.493.493 0 0 0 0 .986ZM13.595 18.032a.41.41 0 1 1-.457-.683.41.41 0 0 1 .457.683ZM11.967 18.085a.361.361 0 1 0-.002-.723.361.361 0 0 0 .002.723ZM12.213 19.149a.411.411 0 1 1-.459-.683.411.411 0 0 1 .459.683ZM13.663 19.432a.493.493 0 1 0-.002-.986.493.493 0 0 0 .002.986ZM15.941 19.121a.575.575 0 1 1-.64-.956.575.575 0 0 1 .64.956ZM16.776 20.647a.657.657 0 1 0-.003-1.315.657.657 0 0 0 .003 1.315ZM14.673 20.747a.575.575 0 1 1-.64-.956.575.575 0 0 1 .64.956ZM12.988 21.96a.576.576 0 1 0-.004-1.152.576.576 0 0 0 .004 1.152ZM14.489 23.294a.657.657 0 1 1-.731-1.09.657.657 0 0 1 .731 1.09ZM17.154 23.669a.771.771 0 1 0-.004-1.543.771.771 0 0 0 .004 1.543ZM15.855 22.177a.657.657 0 1 1-.732-1.09.657.657 0 0 1 .732 1.09ZM18.422 22.027a.772.772 0 1 0-.004-1.543.772.772 0 0 0 .004 1.543ZM12.571 20.465a.493.493 0 1 1-.55-.819.493.493 0 0 1 .55.819Z" fill="#fff"/></svg>
